svgs/sharp-light/bracket-square.svg

<svg xmlns="http://www.w3.org/2000/svg" viewBox="0 0 192 512"><!--! Font Awesome Pro 6.6.0 by @fontawesome - https://fontawesome.com License - https://fontawesome.com/license (Commercial License) Copyright 2024 Fonticons, Inc. --><path d="M0 32l16 0 128 0 16 0 0 32-16 0L32 64l0 384 112 0 16 0 0 32-16 0L16 480 0 480l0-16L0 48 0 32z"/></svg>

<svg xmlns="http://www.w3.org/2000/svg" viewBox="0 0 192 512"><!--! Font Awesome Pro 6.4.2 by @fontawesome - https://fontawesome.com License - https://fontawesome.com/license (Commercial License) Copyright 2023 Fonticons, Inc. --><path d="M0 32H16 144h16V64H144 32V448H144h16v32H144 16 0V464 48 32z"/></svg>
